X:1
T:Duetto à  Due Mandolini
T:Duetto à  Due Mandolini
T:Giovanni Battista Gervasio (c.1725-c.1785) Gimo 147 
T:public domain - Mutopia-2013/04/10-330
T:public domain - Mutopia-2013/04/10-330
C:Giovanni Battista Gervasio (c.1725-c.1785)Gimo 147
Z:public domain - Mutopia-2013/04/10-330
%%score [ ( 1 2 ) ( 3 4 ) ]
L:1/8
Q:1/4=80
M:3/4
K:Eb
V:1 treble nm="Mandolin"
V:2 treble 
V:3 treble nm="Mandolin"
V:4 treble 
V:1
 [G,EBb]4 [Ba]2 | agfede | [GB]4 A2 | AGFEDE | F2 FFFF | G3 A [GB]2 | D2 DDDD | [G,E]3 F [B,G]2 | %8
 e>d d2 c2 |{c} [GB]3 A G2 | (3GFE{cd} (3edc{/c} (3BAG | A/G/F/G/ [B,F]4 :: [DBf]4{fg} a2 | %13
{a} g2 fe de | [B,F]4 A2 |{A} G2 FEDE | e_ddcc=B | c=de=efg |{b} ag/f/ e2 d2 | e2 BG E2 | %20
 DB,DFDB, | EB,EGEB, | BGcAFD | [G,E]4 [EB]2 | [EB]2 [Ec]2 [B,A]2 | [B,A]2 [GB]2 [Ge]2 | %26
{/d} (3cBA{/A} (3GFE (3DEF |{F} [G,E]4 [EB]2 | [EB]2 [Ec]2 [B,A]2 | [B,A]2 [GB]2 [Ge]2 | %30
{/d} (3cBA{/A} (3GFE (3DEF | E>B, G,4 |][M:2/4][Q:1/4=120] E/E/E/E/ G/G/G/G/ | E/E/E/E/ G/G/G/G/ | %34
 F/F/F/F/ A/A/A/A/ | F/F/F/F/ A/A/A/A/ | D/D/D/D/ F/F/F/F/ | D/D/D/D/ F/F/F/F/ | %38
 E/E/E/E/ G/G/G/G/ | E/E/E/E/ G/G/G/G/ | F/F/F/F/ A/A/A/A/ | F/F/F/F/ A/A/A/A/ | %42
 D/D/D/D/ F/F/F/F/ | D/D/D/D/ F/F/F/F/ | [G,E]4 | BG EB | cA Ec | BG EB | AF DF | BG EB | cA Ec | %51
 BG EB | AF DB, | [G,E]4 :: DB, DF | EB, GB | AF DB, | EB, EG | FB, FB | GB, GB | AF DB, | %61
 [G,E]2 e/e/e/e/ | c/c/c/c/ A/A/A/A/ | G/G/G/G/ B/B/B/B/ | D/D/D/D/ F/F/F/F/ | E/E/E/E/ E>E | %66
 EEEE | [G,E]2 e/e/e/e/ | c/c/c/c/ A/A/A/A/ | G/G/G/G/ B/B/B/B/ | D/D/D/D/ F/F/F/F/ | %71
 E/E/E/E/ E>E | EE EE | [G,E]4 |] %74
V:2
 x6 | x6 | x6 | x6 | B,6 | B,3 x3 | B,6 | x6 | x6 | x6 | x6 | x6 :: x6 | x6 | x6 | x6 | x6 | x6 | %18
 x6 | x6 | x6 | x6 | x6 | x6 | x6 | x6 | x6 | x6 | x6 | x6 | x6 | x6 |][M:2/4] x4 | x4 | x4 | x4 | %36
 x4 | x4 | x4 | x4 | x4 | x4 | x4 | x4 | x4 | x4 | x4 | x4 | x4 | x4 | x4 | x4 | x4 | x4 :: x4 | %55
 x4 | x4 | x4 | x4 | x4 | x4 | x4 | x4 | x4 | x4 | x4 | x4 | x4 | x4 | x4 | x4 | x4 | x4 | x4 |] %74
V:3
 [B,GBg]4 [B,Ff]2 | AGFEDE | [B,G]4 [B,F]2 | AGFEDE | D2 DDDD | [G,E]3 F [B,G]2 | F2 FFFF | %7
 [B,G]3 A [GB]2 | c>B B2 A2 |{A} G3 F E2 | (3GFE{AB} (3cBA{/A} (3GFE | F/E/D/E/ [B,D]4 :: BcdcdB | %13
{a} g2 fede | B,CDCDB, |{A} G2 FEDE | z6 | z6 | G2 A2 B2 | EB, [G,E]4 | %20
 D/B,/D/F/ D/B,/D/F/ D/B,/D/F/ | E/B,/E/G/ E/B,/E/G/ E/B,/E/G/ | %22
 G,/A,/B,/G,/ A,/B,/C/A,/ D/E/F/D/ | [G,E]4 [B,G]2 | G2 A2 F2 | [B,F]2 [B,G]2 E2 | %26
{/d} (3cBA{/A} (3GFE (3DEF |{F} [G,E]4 [B,G]2 | G2 A2 F2 | F2 G2 [Ee]2 | %30
{/D} (3cBA{/A} (3GFE (3DEF | E>B, E4 |][M:2/4] G,/G,/G,/G,/ B,/B,/B,/B,/ | %33
 G,/G,/G,/G,/ B,/B,/B,/B,/ | A,/A,/A,/A,/ B,/B,/B,/B,/ | A,/A,/A,/A,/ B,/B,/B,/B,/ | %36
 B,/B,/B,/B,/ D/D/D/D/ | B,/B,/B,/B,/ D/D/D/D/ | G,/G,/G,/G,/ B,/B,/B,/B,/ | %39
 G,/G,/G,/G,/ B,/B,/B,/B,/ | A,/A,/A,/A,/ B,/B,/B,/B,/ | A,/A,/A,/A,/ B,/B,/B,/B,/ | %42
 B,/B,/B,/B,/ D/D/D/D/ | B,/B,/B,/B,/ D/D/D/D/ | [G,E]4 | G,/B,/G,/B,/ G,/B,/G,/B,/ | %46
 A,/C/A,/C/ A,/C/A,/C/ | G,/B,/G,/B,/ G,/B,/G,/B,/ | D/F/D/F/ D/F/D/F/ | %49
 G,/B,/G,/B,/ G,/B,/G,/B,/ | A,/C/A,/C/ A,/C/A,/C/ | G,/B,/G,/B,/ G,/B,/G,/B,/ | %52
 G,/A,/B,/G,/ D/E/F/D/ | [G,E]4 :: B,/D/B,/D/ B,/D/B,/D/ | E/G/E/G/ E/G/E/G/ | %56
 A/F/D/B,/ D/B,/D/B,/ | G,/B,/G,/B,/ G,/B,/G,/B,/ | D/F/D/F/ D/F/D/F/ | E/G/E/G/ E/G/E/G/ | %60
 B,/D/F/A/ F/D/F/D/ | [B,E]2 e/e/e/e/ | c/c/c/c/ A/A/A/A/ | G/G/G/G/ E/E/E/E/ | %64
 B,/B,/B,/B,/ D/D/D/D/ | E2 G>G | GGGG | [G,E]2 e/e/e/e/ | c/c/c/c/ A/A/A/A/ | G/G/G/G/ E/E/E/E/ | %70
 B,/B,/B,/B,/ D/D/D/D/ | E/E/E/E/ G>G | GG GG | [G,E]4 |] %74
V:4
 x6 | x6 | x6 | x6 | B,6 | x6 | B,6 | x6 | x6 | x6 | x6 | x6 :: x6 | x6 | x6 | x6 | x6 | x6 | x6 | %19
 x6 | x6 | x6 | x6 | x6 | B,6 | x6 | x6 | x6 | B,6 | B,6 | x6 | x6 |][M:2/4] x4 | x4 | x4 | x4 | %36
 x4 | x4 | x4 | x4 | x4 | x4 | x4 | x4 | x4 | x4 | x4 | x4 | x4 | x4 | x4 | x4 | x4 | x4 :: x4 | %55
 x4 | x4 | x4 | x4 | x4 | x4 | x4 | x4 | x4 | x4 | x2 B,2 | B,4 | x4 | x4 | x4 | x4 | z2 B,2 | %72
 B,4 | x4 |] %74

